**kern	**kern	**kern
*staff3	*staff2	*staff1
*tb96	*tb96	*tb96
=1-	=1-	=1-
*clefF4	*clefG2	*clefG2
*k[b-e-a-]	*k[b-e-a-]	*k[b-e-a-]
*met(c)	*met(c)	*met(c)
*M4/4	*M4/4	*M4/4
1EE-/ 1BB-/ 1E-/	12ee-/L	2r
.	12gg/	.
.	12e-\	.
.	12g\	.
.	12e-\	.
.	12gg/J	.
.	12ee-/L	4r
.	12gg/	.
.	12e-\	.
.	12g\	4b-\
.	12e-\	.
.	12gg/J	.
=2	=2	=2
1EE-/ 1BB-/ 1E-/	12ee-/L	(4ee-\
.	12gg/	.
.	12e-\	.
.	12g\	4b-\
.	12e-\	.
.	12gg/J	.
.	12ee-/L	4r
.	12gg/	.
.	12e-\	.
.	12g\	8g/
.	12e-\	.
.	.	8a-/
.	12gg/J	.
=3	=3	=3
1BBB-/ 1BB-/	12dd/L	4b-\
.	12gg/	.
.	12d\	.
.	12f\	4b-\
.	12d\	.
.	12gg/J	.
.	12ff/L	4b-\
.	12gg/	.
.	12d\	.
.	12f\	4d/)
.	12d\	.
.	12gg/J	.
=4	=4	=4
!!linebreak:original
1EE-/ 1BB-/ 1E-/	12ee-/L	4f/
.	12gg/	.
.	12e-\	.
.	12g\	4e-/
.	12e-\	.
.	12gg/J	.
.	12ee-/L	4r
.	12gg/	.
.	12e-\	.
.	12g\	4e-/
.	12e-\	.
.	12gg/J	.
=5	=5	=5
2EE-/ 2E-/	12A-/L	4a-/
.	12c/	.
.	12e-/	.
.	12a-/	8b-\L
.	12e-/	.
.	.	8cc\J
.	12c/J	.
4DD/ 4D/	12B-/L	4b-\
.	12e-/	.
.	12a-/	.
4BBB-/ 4BB-/	12d/	4a-/
.	12f/	.
.	12a-/J	.
=6	=6	=6
[2EE-/ [2E-/	12B-/L	4g/
.	12e-/	.
.	12g/	.
.	12b-/	4r
.	12g/	.
.	12e-/J	.
4EE-/] 4E-/]	12B-/L	4r
.	12e-/	.
.	12g/	.
4DD/ 4D/	12Bn/	4g/
.	12e-/	.
.	12g/J	.
=7	=7	=7
!!linebreak:original
2CC/ 2C/	12c/L	2cc\
.	12e-/	.
.	12g/	.
.	12cc/	.
.	12g/	.
.	12e-/J	.
2GGG/ 2EE-/ 2GG/	12d/L	2dd\
.	12f/	.
.	12g/	.
.	12bn/	.
.	12g/	.
.	12f/J	.
=8	=8	=8
2.CC/ 2.C/	12e-/L	4.ee-\
.	12g/	.
.	12cc/	.
.	12ee-/	.
.	12cc/	.
.	.	8dd\
.	12g/J	.
.	12e-/L	8ee-\
.	12g/	.
.	.	8dd\
.	12cc/	.
4EE-/ 4E-/	12g/	8ee-\
.	12e-/	.
.	.	8cc\
.	12c/J	.
=9	=9	=9
1FF/ 1C/ 1F/	12A-/L	4b-\
.	12c/	.
.	12f/	.
.	12a-/	4a-/
.	12f/	.
.	12c/J	.
.	12A-/L	4r
.	12c/	.
.	12f/	.
.	12a-/	4f/
.	12f/	.
.	12c/J	.
=10	=10	=10
!!linebreak:original
1BB-/	12ee-/L	2b-\
.	12gg/	.
.	12e-\	.
.	12g\	.
.	12e-\	.
.	12gg/J	.
.	12ee-/L	2b-\
.	12gg/	.
.	12e-\	.
.	12g\	.
.	12e-\	.
.	12gg/J	.
=11	=11	=11
1BBB-/ 1BB-/	12dd/L	4.dd\
.	12gg/	.
.	12d\	.
.	12f\	.
.	12d\	.
.	.	8cc\
.	12gg/J	.
.	12ff/L	8b-\
.	12gg/	.
.	.	8a-/
.	12d\	.
.	12f\	8g/
.	12d\	.
.	.	8f/
.	12gg/J	.
=12	=12	=12
1EE-/ 1E-/	(12ee-/L	4e-/
.	12gg/)	.
.	12e-\	.
.	12g\	4r
.	12e-\	.
.	12d-\J	.
.	12c/L	2r
.	12e-/	.
.	12a-/	.
.	12f/	.
.	12d-/	.
.	12c/J	.
=13	=13	=13
!!linebreak:original
1EE-/ 1E-/	8B-/L	4r
.	8e-/	.
.	8g/	2r
.	8f/	.
.	8d/	.
.	8A-/J	.
.	4r	4b-\
=14	=14	=14
1EE-/ 1E-/	12ee-/L	4ee-\
.	12gg/	.
.	12e-\	.
.	12g\	4b-\
.	12e-\	.
.	12gg/J	.
.	12ee-/L	4r
.	12gg/	.
.	12e-\	.
.	12g\	8g/
.	12e-\	.
.	.	8a-/
.	12gg/J	.
=15	=15	=15
1BBB-/ 1BB-/	12dd/L	4b-\
.	12gg/	.
.	12d\	.
.	12f\	4b-\
.	12d\	.
.	12gg/J	.
.	12dd/L	8b-\L
.	12gg/	.
.	.	8bn\J
.	12d\	.
.	12f\	8cc\L
.	12d\	.
.	.	8a-\J
.	12gg/J	.
=16	=16	=16
!!linebreak:original
1EE-/ 1E-/	12ee-/L	4a-/
.	12gg/	.
.	12e-\	.
.	12g\	4g/
.	12e-\	.
.	12gg/J	.
.	12ee-/L	4r
.	12gg/	.
.	12e-\	.
.	12g\	4ee-\
.	12e-\	.
.	12gg/J	.
=17	=17	=17
2AA-/	12ff/L	4ee-\
.	12aa-/	.
.	12e-\	.
.	12a-\	8dd\L
.	12e-\	.
.	.	8cc\J
.	12c\J	.
4BB-/	12gg/L	8b-\L
.	12ccc~/	.
.	.	8bn\J
.	12g\	.
4BBB-/	12gg/	8cc\L
.	12bb-/	.
.	.	8a-\J
.	12f\J	.
=18	=18	=18
2EE-/ 2E-/	12ee-/L	4g/
.	12gg/	.
.	12e-\	.
.	12g\	4r
.	12e-\	.
.	12gg/J	.
2DD/ 2D/	12ggn/L	4r
.	12d\	.
.	12f\	.
.	12a-\	4g/
.	12f\	.
.	12d\J	.
=19	=19	=19
!!linebreak:original
2CC/ 2EE-/ 2C/	8r	2cc\
.	8c/L	.
.	8e-/	.
.	8g/	.
2AA-\ 2A-\	8e-/	2dd\
.	8c/J	.
.	8r	.
.	8d/L	.
=20	=20	=20
4GG/ 4G/	4e-/ 4b-/ 4ee-/	4ee-\
8r	8r	8ee-\L
8FF/ 8F/	8a-\ 8b-\ 8dd\	8ff\J
4EE-/ 4E-/	4g\ 4b-\ 4ee-\	8gg\
.	.	8ee-\
4r	4r	8b-\
.	.	8g/
=21	=21	=21
[2AAA-/ [2FF/ [2AA-/	12ff/L	4f/
.	12aa-/	.
.	12e-\	.
.	12f\	4cc\
.	12e-\	.
.	8c\J	.
2AAA-/] 2AA-/]	.	8r
.	12ff/L	.
.	12aa-/	8A-/
.	12e-\	.
.	.	8B-/
.	12f\	.
.	12e-\	8c/
.	32r	.
.	=22	.
!!linebreak:original
=22	12B-/L	=22
!!linebreak:original
[2BBB-/ [2DD/ [2BB-/	.	8B-/L
.	12e-/	.
.	.	8e-/J
.	12g/	.
.	12b-/	.
.	.	8g/L
.	12g/	.
.	.	8b-/J
.	12e-/J	.
.	12B-/L	.
2BBB-/] 2BB-/]	.	4cc-\
.	12d/	.
.	12f/	.
.	12a-/	.
.	.	8.b-/L
.	12f/	.
.	12d/J	.
.	.	16d/JJ
.	=23	.
=23	4B-/ 4g/	=23
4EE-/ 4G/ 4e-/	.	4e-/
.	4r	.
4C/	.	4r
.	4r	.
4EE-/ 4G/ 4e-/	.	4r
.	4r	.
4r	.	4g/
.	=24||	.
!!linebreak:original
=24||	8ee-/L	=24||
!!linebreak:original
*^	*	*
4CC/	8r	.	2.cc\
.	.	8aa-/	.
*v	*v	*	*
4C/	.	.
.	8e-\	.
4BB-/	.	.
.	8.c'\	.
4AA-/	.	.
.	8ee-/J	.
.	8en/L	.
=25	.	4dd\
2GG/	.	.
.	8c/	.
.	16r	.
.	=25	.
.	8r	=25
.	.	2.ee-\
.	8c/L	.
.	8e-/	.
2FF/]	.	.
.	8g/	.
.	8e-/	.
.	8c/J	.
.	8r	.
=26	.	8ff\L
2GG/	.	.
.	8c/L	.
.	.	8dd\J
.	=26	.
.	(8r	=26
.	.	4cc\
.	8c/L)	.
.	8e-/	.
2GGG/	.	4bn\
.	8g/	.
.	8e-/	.
.	.	4cc\
.	8c/J	.
.	8r	.
=27	.	4dd\
!!linebreak:original
2CC/	.	.
.	8Bn/L	.
.	=27	.
!!linebreak:original
.	8r	=27
!!linebreak:original
.	.	2dd\
.	8Bn/L	.
.	8f/	.
4C/	.	.
.	8g/	.
.	8f/	.
4BB-/	.	4ee-\
.	8B/J	.
.	8r	.
=28	.	4cc\
4AA-/	.	.
.	8c/L	.
.	=28	.
.	8r	=28
4FF/	.	4ff\
.	8c/L	.
.	8f/	.
4GG/	.	8ee-\L
.	8a-/	.
.	.	8dd\J
.	8f/	.
4G\	.	4.dd\
.	8c/J	.
.	8g/L	.
=29	.	.
4C/	.	.
.	8d/	.
.	.	8cc\
.	=29	.
.	8r	=29
4r	.	4cc\
.	8c/L	.
.	8e-/	.
4r	.	4r
.	8g/	.
.	8e-/	.
4r	.	4r
.	8c/J	.
.	8r	.
=30	.	4cc\
!!linebreak:original
4BB-/	.	.
.	8c/L	.
.	=30	.
!!linebreak:original
.	8r	=30
!!linebreak:original
4r	.	2dd-\
.	8c/L	.
.	8en/	.
2r	.	.
.	8g/	.
.	8e/	.
.	.	2cc\
.	8c/J	.
.	8r	.
=31	.	.
2AA-/	.	.
.	8c/L	.
.	=31	.
.	8r	=31
.	.	2.ff\
.	8c/L	.
.	8f/	.
2BB-/	.	.
.	8a-/	.
.	8f/	.
.	8c/J	.
.	8r	.
=32	.	8ee-\L
4C/	.	.
.	8d-/L	.
.	.	8dd-\J
.	=32	.
.	12a-/L	=32
4D-\	.	4cc\
.	12f/	.
.	12c/	.
.	12b-/	.
4C/	.	4b-\
.	12f/	.
.	12B-/J	.
.	12a-/L	.
4CC/	.	4a-/
.	12f/	.
.	12c/	.
.	12g/	.
=33	.	4g/
!!linebreak:original
4FF/	.	.
.	12en/	.
.	12c/J	.
.	=33	.
!!linebreak:original
.	8r	=33
!!linebreak:original
4r	.	2g/
.	8c/L	.
.	8en/	.
2r	.	.
.	8b-/	.
.	8e/	.
.	.	4a-/
.	8c/J	.
.	8a-/L	.
=34	.	4f/
2A-\	.	.
.	8f/	.
.	=34	.
.	8r	=34
.	.	2cc\
.	8c/L	.
.	8f/	.
2AA-/	.	.
.	8cc/	.
.	8f/	.
.	.	2cc\
.	8c/J	.
.	8r	.
=35	.	.
2GG/	.	.
.	8d/L	.
.	=35	.
.	8r	=35
.	.	4b-\
.	8B-/L	.
.	8e-/	.
2AA-/	.	4.ee-\
.	8b-/	.
.	8e-/	.
.	8B-/J	.
.	.	(8cc/L
.	8r	.
=36	.	8a-/
!!linebreak:original
2BB-/	.	.
.	8c/L	.
.	.	8f/J)
.	=36	.
!!linebreak:original
.	8r	=36
!!linebreak:original
.	.	(4e-/
.	8B-/L	.
.	8e-/	.
2BB-/	.	2g/)
.	8g/	.
.	8e-/	.
.	8B-/J	.
.	8r	.
=37	.	4f/
2EE-/	.	.
.	8B-/L	.
.	=37	.
.	12g/L	=37
.	.	4e-/
.	12b-/	.
.	12a-/	.
.	12g/	.
2r	.	4r
.	12f/	.
.	12e-/J	.
.	12d/L	.
.	.	4r
.	12f/	.
.	12e-/	.
.	12c/	.
=38||	.	4e-/
[2AAA-/ [2FF/	.	.
.	12d-/	.
.	12B-/J	.
.	=38||	.
.	12A-/L	=38||
.	.	2.cc\
.	12c/	.
.	12e-/	.
.	12a-/	.
2AAA-/] 2FF/]	.	.
.	12e-/	.
.	12c/J	.
.	12A-/L	.
.	12c/	.
.	12e-/	.
.	12a-/	.
=39	.	8b-/L
!!linebreak:original
1AA-/	.	.
.	12e-/	.
.	.	8a-/J
.	12c/J	.
.	=39	.
!!linebreak:original
.	12A-/L	=39
!!linebreak:original
.	.	(4g/
.	12c/	.
.	12f/	.
.	12a-/	.
.	.	2f/)
.	12f/	.
.	12c/J	.
.	12A-/L	.
.	12c/	.
.	12f/	.
.	12a-/	.
=40	.	4e-/
4BB-/	.	.
.	12f/	.
.	12c/J	.
.	=40	.
.	12B-/L	=40
4AA-/	.	4d-/
.	12d-/	.
.	12f/	.
.	12B-/	.
4GG/	.	4f/
.	12dn/	.
.	12f/J	.
.	12B-/L	.
4FF/	.	4b-\
.	12e-/	.
.	12g/	.
.	12B-/	.
=41	.	4a-/
2CC/ 2FF/	.	.
.	12d/	.
.	12a-/J	.
.	=41	.
.	12B-/L	=41
.	.	4a-/
.	12d/	.
.	12e-/	.
.	12g/	.
4r	.	4g/
.	12e-/	.
.	12d/J	.
.	12B-/L	.
4r	.	4r
.	12d/	.
.	12e-/	.
.	12g/	.
=42	.	4b-\
!!linebreak:original
2C/	.	.
.	12e-/	.
.	12d/J	.
.	=42	.
!!linebreak:original
.	12A-/L	=42
!!linebreak:original
.	.	[4ee-\
.	12e-/	.
.	12a-/	.
.	12A-/	.
2D-\	.	4een\]
.	12e-/	.
.	12g-/J	.
.	12A-/L	.
.	.	8ff\L
.	12d-/	.
.	.	8cc\J
.	12f/	.
.	12B-/	.
=43	.	8dd-\L
1E-/	.	.
.	12d-/	.
.	.	8b-\J
.	12f/J	.
.	=43	.
.	12B-/L	=43
.	.	4a-/
.	12d-/	.
.	12f/	.
.	12a-/	.
.	.	4g/
.	12f/	.
.	12d-/J	.
.	12B-/L	.
.	.	2r
.	12e-/	.
.	12g/	.
.	12b-/	.
=44	.	.
1EE-/	.	.
.	12g/	.
.	12e-/J	.
.	=44	.
.	12d-/L	=44
.	.	2b-\
.	12e-/	.
.	12g/	.
.	12b-/	.
.	12g/	.
.	12e-/J	.
.	12d-/L	.
.	.	4g/
.	12e-/	.
.	12g/	.
.	12b-/	.
=45	.	4e-/
!!linebreak:original
1AA-/	.	.
.	12g/	.
.	12e-/J	.
.	=45	.
!!linebreak:original
.	12c/L	=45
!!linebreak:original
.	.	4cc\
.	12e-/	.
.	12a-/	.
.	12cc/	.
.	.	4r
.	12a-/	.
.	12e-/J	.
.	12c/L	.
.	.	4r
.	12e-/	.
.	12a-/	.
.	12cc/	.
=46	.	4a-/
1A-/	.	.
.	12a-/	.
.	12e-/J	.
.	=46	.
.	12e-/L	=46
.	.	4ee-\
.	12g-/	.
.	12a-/	.
.	12cc/	.
.	.	4cc\
.	12a-/	.
.	12g-/J	.
.	12e-/L	.
.	.	4a-/
.	12g-/	.
.	12a-/	.
.	12cc/	.
=47	.	4g-/
1D-/	.	.
.	12a-/	.
.	12g-/J	.
.	=47	.
.	12d-/L	=47
.	.	4g-/
.	12f/	.
.	12a-/	.
.	12dd-/	.
.	.	4f/
.	12a-/	.
.	12f/J	.
.	12d-/L	.
.	.	4r
.	12f/	.
.	12a-/	.
.	12dd-/	.
=48	.	4f/
!!linebreak:original
1BB-/	.	.
.	12a-/	.
.	12f/J	.
.	=48	.
!!linebreak:original
.	12d-/L	=48
!!linebreak:original
.	.	2.dd-\
.	12f/	.
.	12b-/	.
.	12dd-/	.
.	12b-/	.
.	12f/J	.
.	12d-/L	.
.	12f/	.
.	12b-/	.
.	12dd-/	.
=49	.	8cc\L
4E-\	.	.
.	12b-/	.
.	.	8b-\J
.	12f/J	.
.	=49	.
.	12B-/L	=49
4D-\	.	4a-/
.	12e-/	.
.	12g/	.
.	12B-/	.
4C/	.	(4g/
.	12e-/	.
.	12g/J	.
.	12A-/L	.
4D-\	.	4a-/
.	12e-/	.
.	12a-/	.
.	12d-/	.
=50	.	4dd-\)
2E-\	.	.
.	12f/	.
.	12a-/J	.
.	=50	.
.	12c/L	=50
.	.	2cc\
.	12e-/	.
.	12a-/	.
.	12cc/	.
2EE-/	.	.
.	12a-/	.
.	12e-/J	.
.	12d-/L	.
.	.	(4.b-\
.	12e-/	.
.	12g/	.
.	12b-/	.
=51	.	.
!!linebreak:original
1AAA-/ 1AA-/	.	.
.	12g/	.
.	.	8a-/)
.	12e-/J	.
.	=51	.
!!linebreak:original
.	12c/L	=51
!!linebreak:original
.	.	4a-/
.	12e-/	.
.	12a-/	.
.	12cc/	.
.	.	4r
.	12a-/	.
.	12e-/J	.
.	12c-/L	.
.	.	2r
.	12e-/	.
.	12a-/	.
.	12cc-/	.
=52	.	.
1BBB-/ 1BB-/	.	.
.	12a-/	.
.	12e-/J	.
.	=52	.
.	12B-/L	=52
.	.	4r
.	12e-/	.
.	12a-/	.
.	12b-/	.
.	.	2r
.	12a-/	.
.	12e-/J	.
.	12B-/L	.
.	12d/	.
.	12a-/	.
.	12b-/	.
=53	.	4b-\
1EE-/ 1E-/	.	.
.	12a-/	.
.	12d/J	.
.	=53	.
.	12ee-/L	=53
.	.	4ee-\
.	12gg/	.
.	12e-\	.
.	12g\	.
.	.	4b-\
.	12e-\	.
.	12gg/J	.
.	12ee-/L	.
.	.	4g/
.	12gg/	.
.	12e-\	.
.	12g\	.
=54	.	4e-/
!!linebreak:original
2EE-/ 2E-/	.	.
.	12e-\	.
.	12gg/J	.
.	=54	.
!!linebreak:original
.	12ee-/L	=54
!!linebreak:original
.	.	4r
.	12gg/	.
.	12e-\	.
.	12g\	.
2BBB-/ 2DD/] 2BB-/	.	8g/
.	12e-\	.
.	.	8a-/
.	12gg/J	.
.	12dd/L	.
.	.	4b-\
.	12gg/	.
.	12d\	.
.	12f\	.
=55	.	4d/
1EE-/ 1E-/	.	.
.	12d\	.
.	12gg/J	.
.	=55	.
.	12ee-/L	=55
.	.	4f/
.	12gg/	.
.	12e-\	.
.	12g\	.
.	.	4e-/
.	12e-\	.
.	12gg/J	.
.	12ee-/L	.
.	.	4r
.	12gg/	.
.	12e-\	.
.	12g\	.
=56	.	4e-/
2EE-/ 2E-/	.	.
.	12e-\	.
.	12gg/J	.
.	=56	.
.	12ff/L	=56
.	.	4a-/
.	12aa-/	.
.	12e-\	.
.	12a-\	.
4DD/ 4D/	.	8b-\L
.	12e-\	.
.	.	8cc\J
.	12c\J	.
.	12B-/L	.
4BBB-/ 4BB-/	.	4b-\
.	12f/	.
.	12a-/	.
.	12d/	.
=57	.	4a-/
!!linebreak:original
1EE-/ 1E-/	.	.
.	12f/	.
.	12a-/J	.
.	=57	.
!!linebreak:original
.	12B-/L	=57
!!linebreak:original
.	.	4g/
.	12e-/	.
.	12g/	.
.	12b-/	.
.	.	4r
.	12g/	.
.	12e-/J	.
.	12B-/L	.
.	.	4r
.	12e-/	.
.	12g/	.
.	12b-/	.
=58	.	4g/
[1CC'/ [1C'/	.	.
.	12g/	.
.	12e-/J	.
.	=58	.
.	12c/L	=58
.	.	(4ee-\
.	12e-/	.
.	12g/	.
.	12cc/	.
.	.	[4cc\)
.	12g/	.
.	12e-/J	.
.	12c/L	.
.	.	4cc\]
.	12e-/	.
.	12g/	.
.	12cc/	.
=59	.	[4g/
1CC/] 1C/]	.	.
.	12g/	.
.	12e-/J	.
.	=59	.
.	12c/L	=59
.	.	4g/]
.	12e-/	.
.	12g/	.
.	12cc/	.
.	.	[4e-/
.	12g/	.
.	12e-/J	.
.	12c/L	.
.	.	4e-/]
.	12e-/	.
.	12g/	.
.	12cc/	.
=60	.	4c/
!!linebreak:original
1AA-/ 1A-/	.	.
.	12g/	.
.	12e-/J	.
.	=60	.
!!linebreak:original
.	12B-/L	=60
!!linebreak:original
.	.	4B-/
.	12f/	.
.	12b-/	.
.	12dd/	.
.	.	4dd\
.	12b-/	.
.	12f/J	.
.	12B-/L	.
.	.	8dd\L
.	12f/	.
.	.	16ee-\
.	12b-/	.
.	.	16dd\JJ
.	12dd/	.
=61	.	8cc\L
1GG/ 1G/	.	.
.	12b-/	.
.	.	8b-\J
.	12f/J	.
.	=61	.
.	12e-/L	=61
.	.	4ff\
.	12g/	.
.	12b-/	.
.	12ee-/	.
.	.	4ee-\
.	12b-/	.
.	12g/J	.
.	12e-/L	.
.	.	4r
.	12g/	.
.	12b-/	.
.	12ee-/	.
=62	.	4b-\
1EE-/ 1E-/	.	.
.	12b-/	.
.	12g/J	.
.	=62	.
.	12ee-/L	=62
.	.	2ee-\
.	12gg/	.
.	12e-\	.
.	12g\	.
.	12e-\	.
.	12gg/J	.
.	12ee-/L	.
.	.	2bn\
.	12gg/	.
.	12e-\	.
.	12g\	.
=63	.	.
!!linebreak:original
1AAA-/ 1AA-/	.	.
.	12e-\	.
.	12gg/J	.
.	=63	.
!!linebreak:original
.	12ff/L	=63
!!linebreak:original
.	.	(4cc\
.	12aa-/	.
.	12e-\	.
.	12a-\	.
.	.	4g/)
.	12e-\	.
.	12c\J	.
.	12ff/L	.
.	.	(4a-/
.	12aa-/	.
.	12e-\	.
.	12a-\	.
=64	.	4f/)
1BBB-/ 1BB-/	.	.
.	12e-\	.
.	12c\J	.
.	=64	.
.	12ee-/L	=64
.	.	4b-\
.	12gg/	.
.	12e-\	.
.	12g\	.
.	.	2g/
.	12e-\	.
.	12gg/J	.
.	12ee-/L	.
.	12gg/	.
.	12e-\	.
.	12g\	.
=65	.	4e-/
1BBB-/ 1BB-/	.	.
.	12e-\	.
.	12gg/J	.
.	=65	.
.	12ff/L	=65
.	.	4cc\
.	12gg/	.
.	12d\	.
.	12f\	.
.	.	2cc\
.	12d\	.
.	12B-\J	.
.	12ff/L	.
.	12gg/	.
.	12d\	.
.	12f\	.
=66	.	4d/
!!linebreak:original
[1EE-/ [1E-/	.	.
.	12d\	.
.	12B-\J	.
.	=66	.
!!linebreak:original
.	12ee-/L	=66
!!linebreak:original
.	.	4e-/
.	12gg/	.
.	12e-\	.
.	12g\	.
.	.	4r
.	12e-\	.
.	12d-\J	.
.	12c/L	.
.	.	2r
.	12e-/	.
.	12a-/	.
.	12f/	.
=67	.	.
1EE-'/] 1E-'/]	.	.
.	12d-/	.
.	12c/J	.
.	=67	.
.	12B-/L	=67
.	.	1r
.	12e-/	.
.	12g/	.
.	12f/	.
.	12d/	.
.	12A-/J	.
.	12ee-/L	.
.	12gg/	.
.	12e-\	.
.	12dd/	.
=68	.	.
4EE-/	.	.
.	12ff/	.
.	12d\J	.
.	=68	.
.	4E-/ 4B-/ 4e-/	=68
4r	.	1r
.	4r	.
4E-\	.	.
.	4E-/ 4B-/ 4e-/	.
4r	.	.
.	4r	.
=69	.	.
1EE-/	.	.
.	=69	.
.	1E-;/ 1B-;/ 1e-;/	=69
.	.	1r
==	.	.
*-	*	*
==	.
*-	*
==
*-
